packages/elvis-assets-icons/icons/svg/src/calendar-color.svg

<svg width="24" height="24" viewBox="0 0 24 24" fill="none" xmlns="http://www.w3.org/2000/svg">
<g clip-path="url(#clip0)">
<path d="M2.25 24.0276C1.009 24.0276 0 23.0174 0 21.775V5.25603C0 4.01361 1.009 3.00345 2.25 3.00345H6V0.750862C6 0.336386 6.336 0 6.75 0C7.164 0 7.5 0.336386 7.5 0.750862V3.00345H16.5V0.750862C16.5 0.336386 16.836 0 17.25 0C17.664 0 18 0.336386 18 0.750862V3.00345H21.75C22.991 3.00345 24 4.01361 24 5.25603V21.775C24 23.0174 22.991 24.0276 21.75 24.0276H2.25ZM1.5 21.775C1.5 22.1895 1.836 22.5259 2.25 22.5259H21.75C22.164 22.5259 22.5 22.1895 22.5 21.775V10.5121H1.5V21.775ZM22.5 9.01035V5.25603C22.5 4.84156 22.164 4.50517 21.75 4.50517H18V6.0069C18 6.42137 17.664 6.75776 17.25 6.75776C16.836 6.75776 16.5 6.42137 16.5 6.0069V4.50517H7.5V6.0069C7.5 6.42137 7.164 6.75776 6.75 6.75776C6.336 6.75776 6 6.42137 6 6.0069V4.50517H2.25C1.836 4.50517 1.5 4.84156 1.5 5.25603V9.01035H22.5Z" fill="black"/>
<rect x="3" y="19.5" width="6" height="1.5" rx="0.75" fill="#29D305"/>
</g>
<defs>
<clipPath id="clip0">
<path d="M0 0H24V24H0V0Z" fill="white"/>
</clipPath>
</defs>
</svg>

<svg width="24" height="24" fill="none" xmlns="http://www.w3.org/2000/svg"><g clip-path="url(#clip0)"><path d="M2.25 24.028A2.253 2.253 0 010 21.775V5.256a2.253 2.253 0 012.25-2.253H6V.751a.75.75 0 111.5 0v2.252h9V.751a.75.75 0 111.5 0v2.252h3.75c1.241 0 2.25 1.01 2.25 2.253v16.519a2.253 2.253 0 01-2.25 2.253H2.25zm-.75-2.253c0 .415.336.75.75.75h19.5a.75.75 0 00.75-.75V10.512h-21v11.263zm21-12.765V5.256a.75.75 0 00-.75-.75H18v1.5a.75.75 0 11-1.5 0v-1.5h-9v1.5a.75.75 0 11-1.5 0v-1.5H2.25a.75.75 0 00-.75.75V9.01h21z" fill="#000"/><rect x="3" y="19.5" width="6" height="1.5" rx=".75" fill="#29D305"/></g><defs><clipPath id="clip0"><path d="M0 0h24v24H0V0z" fill="#fff"/></clipPath></defs></svg>
